static/images/mobile/copyright/wikipedia-wordmark-new.svg

<?xml version="1.0" encoding="UTF-8"?>
<svg width="120px" height="28px" viewBox="0 0 120 28" version="1.1" xmlns="http://www.w3.org/2000/svg" xmlns:xlink="http://www.w3.org/1999/xlink">
    <title>new-wordmark</title>
    <g id="Page-1" stroke="none" stroke-width="1" fill="none" fill-rule="evenodd">
        <path d="M118.233586,8.75469965 L120,10.5340084 L115.590418,10.5340084 L115.590418,27.2440121 L113.475886,25.1036903 L113.475886,10.5340084 L108.950251,10.5340084 L108.950251,27.2440121 L106.848614,25.1165852 L106.848614,20.4362328 C105.808528,21.6310352 104.476195,22.2284364 102.851625,22.2284364 C100.848823,22.2284364 99.3187862,21.4634235 98.2615257,19.9333868 C97.5738712,18.9362988 97.230044,17.801669 97.230044,16.5294972 C98.0036498,16.5295082 98.6956062,16.3318048 99.3059023,15.9363979 C99.9849528,15.4980265 100.384651,14.9178221 100.504996,14.1957629 C100.556597,14.0238713 100.582343,13.7273217 100.582343,13.3061141 C100.582332,12.0511612 100.109567,11.1271296 99.1640474,10.5340084 L92.0339551,10.5340084 L92.0339551,16.1555782 L85.9997871,16.1298324 C84.3751985,16.1210304 83.5629069,16.5080534 83.5629124,17.2902411 C83.5629069,17.7544243 83.6918427,18.1498202 83.9497175,18.4764505 C84.2247738,18.8288817 84.5900899,19.0050973 85.0456671,19.0050863 C85.4066791,19.0050973 85.9439089,18.9491937 86.6573575,18.8374636 C87.3707897,18.7171406 87.9080195,18.6569681 88.2690469,18.6569571 C89.506815,18.6569681 90.5683797,19.1813019 91.4537475,20.2299694 C92.3047062,21.2270684 92.7301915,22.3574073 92.7302058,23.6209642 C92.7301915,24.6266671 92.2273445,25.4991191 91.2216636,26.2383532 C90.3019141,26.9174037 89.3177101,27.25694 88.2690469,27.25694 C86.3178202,27.25694 84.4697504,26.3715821 82.7248332,24.6008773 C81.5472222,23.4060749 80.322339,21.6740438 79.0501794,19.4047841 L79.8366844,18.9535067 C80.6618676,20.5179261 81.6632631,21.8631543 82.8408752,22.9891803 C84.327922,24.4160688 85.7805904,25.1295131 87.1988849,25.1295021 C88.1358048,25.1295131 88.982479,24.8243595 89.7389089,24.2140634 C90.555487,23.5693956 90.963781,22.7914879 90.9637931,21.8803402 C90.963781,21.5021302 90.8348464,21.1798018 90.576988,20.913322 C90.3191055,20.6468641 90.0053634,20.5136352 89.6357607,20.5136242 C89.2489446,20.5136352 88.6945235,20.664061 87.9724962,20.9649015 C87.2590464,21.2571602 86.7132215,21.403284 86.3350192,21.403284 C85.355105,21.403284 84.4912393,20.8961361 83.7434212,19.8818402 C83.5113328,19.5809997 82.9955931,18.6569681 82.1961986,17.1097345 C81.8781556,16.4994494 81.7191358,16.0052074 81.719138,15.6269864 C81.7191358,14.8963563 82.1102385,14.4107072 82.8924493,14.1700171 C83.3308241,14.0324972 84.0227761,13.9637318 84.9683054,13.9637208 L90.1128213,13.9637208 L90.1128213,10.5340414 L76.8195999,10.5340084 L76.8195999,27.2440121 L74.6792759,25.1165852 L74.6792759,10.5340084 L70.2181169,10.5340084 L70.2181169,27.2440121 L68.0004313,25.013437 L68.0004313,19.6884058 C67.2955766,20.1096024 66.2469046,20.3202007 64.854412,20.3201897 C63.4876938,20.1826698 62.3358737,19.5637808 61.3989483,18.4635226 C60.4706126,17.3890763 60.0064469,16.1598911 60.006448,14.7759783 L60.006448,10.5340084 L56.1383916,10.5340084 L56.1383916,27.2440121 L53.9980676,25.1036903 L53.9980676,10.5340084 L41.8781575,10.5340084 L41.8781575,15.4980155 C42.1360158,15.2659403 42.3251197,15.1069216 42.4454724,15.0209483 C42.7377124,14.80607 43.025668,14.6599462 43.3093381,14.5825768 C43.8938301,14.4192671 44.439655,14.3376068 44.946815,14.3375958 C46.2619382,14.3376068 47.3492905,14.7974771 48.2088762,15.7172067 C49.0684256,16.6283544 49.4982085,17.7500894 49.4982283,19.0824117 C49.4982085,20.1482871 49.1199986,21.153979 48.3635985,22.0994984 C47.7962659,22.8301285 46.9066138,23.4404246 45.6946398,23.9303757 L44.7534125,22.0994984 C45.9739827,21.532189 46.7905718,21.0852136 47.2031821,20.7585722 C48.1143056,20.0451389 48.5698761,19.2629292 48.5698948,18.411954 C48.5698761,17.6469412 48.2131562,16.9549958 47.4997328,16.3360957 C47.0441447,15.9492928 46.3350013,15.803169 45.3723015,15.8977132 C44.9167156,15.9407329 44.3579968,16.2415515 43.6961443,16.800257 C43.0428593,17.3503916 42.4368641,18.0251512 41.8781575,18.8245467 L41.8781575,27.2440121 L39.7378324,25.0779005 L39.7378324,21.3258816 C39.3682087,21.7384853 38.8223838,22.0952074 38.1003554,22.396048 C37.3783105,22.6883067 36.7293374,22.8344305 36.153434,22.8344305 C34.9070553,22.8344305 33.841192,22.4089429 32.9558407,21.5579678 C32.079079,20.7070036 31.6406998,19.658336 31.6407009,18.411954 C31.6406998,17.1397933 32.057589,16.0911257 32.8913728,15.2659293 C33.72515,14.432162 34.7781195,14.0152674 36.0502858,14.0152564 C37.6662661,14.0152674 38.8954468,14.7029219 39.7378324,16.0782198 L39.7378324,10.5340084 L27.7726445,10.5340084 L27.7726445,27.2440121 L25.6323205,25.1036903 L25.6323205,10.5340084 L21.1582689,10.5340084 L21.1582689,27.2440121 L18.8632215,24.9489625 L18.8632215,20.3201897 C18.218535,20.7499793 17.4793075,21.1281892 16.6455358,21.4548196 C15.691407,21.8244366 14.8920103,21.9920593 14.2473414,21.9576656 C12.9407924,21.8889001 11.8104612,21.2571272 10.8563445,20.0623248 C10.0999223,19.1082125 9.72171348,17.9821755 9.72171458,16.6842139 C9.8678395,16.0137673 10.1171137,15.4765386 10.4695394,15.0725279 C11.8362488,13.7831922 13.3490864,13.1685942 15.0080589,13.2287557 C16.6584208,13.2803573 17.9434732,14.0711489 18.8632215,15.6011636 L18.8632215,10.5340084 L5.85365816,10.5340084 L5.85365816,27.2440121 L3.71333416,25.1036903 L3.71333416,10.5340084 L1.80509299,10.5340084 L0,8.75469965 L3.73912065,8.75469965 C2.87955146,7.49115381 2.44976851,5.95253517 2.44976851,4.13882174 C2.44976851,2.84089318 2.95261557,1.81371343 3.95831079,1.0572715 C4.77489773,0.447008416 5.87514379,0.141832861 7.25905227,0.141832861 C8.65154598,0.141832861 9.84634397,0.296582624 10.8434518,0.60599413 C12.0038582,0.958447305 13.1599759,1.57733633 14.3118082,2.46266121 C16.2651752,3.96981998 17.7773182,6.06664364 18.8482411,8.75314251 L23.7627596,8.75469965 L25.658107,8.75469965 C24.7985378,7.49115381 24.3687549,5.95253517 24.3687549,4.13882174 C24.3687549,2.84089318 24.8716019,1.81371343 25.8772972,1.0572715 C26.6938841,0.447008416 27.7941302,0.141832861 29.1780386,0.141832861 C30.5705323,0.141832861 31.7653303,0.296582624 32.7624381,0.60599413 C33.9228446,0.958447305 35.0789623,1.57733633 36.2307946,2.46266121 C38.1841616,3.96981998 39.6963045,6.06664364 40.7672274,8.75314251 L52.0382523,8.75469965 L54.0238541,8.75469965 C53.1642849,7.49115381 52.7345019,5.95253517 52.7345019,4.13882174 C52.7345019,2.84089318 53.237349,1.81371343 54.2430442,1.0572715 C55.0596311,0.447008416 56.1598772,0.141832861 57.5437857,0.141832861 C58.9362794,0.141832861 60.1310774,0.296582624 61.1281852,0.60599413 C62.2885917,0.958447305 63.4447094,1.57733633 64.5965416,2.46266121 C66.5499087,3.96981998 68.0620516,6.06664364 69.1329745,8.75314251 L72.7968212,8.75469965 L74.7050624,8.75469965 C73.8454932,7.49115381 73.4157102,5.95253517 73.4157102,4.13882174 C73.4157102,2.80651045 73.9959179,1.75784288 75.1563365,0.992797021 C76.1620273,0.330965348 77.3697191,-1.77635684e-15 78.7794151,-1.77635684e-15 C81.4526637,-1.77635684e-15 83.9368127,0.885379891 86.2318711,2.65606266 C88.8096545,4.64802539 90.6417977,6.68070037 91.7283049,8.75411807 L118.233586,8.75469965 Z M37.1333416,15.8590286 C35.8783656,15.8590396 34.9070553,16.1040206 34.2194052,16.5939607 C33.273877,17.2644403 32.7581373,18.1583911 32.6721827,19.2758131 C32.6206031,19.9806644 32.8140089,20.5479849 33.2523914,20.9777634 C33.6134067,21.3215907 34.1119551,21.4935043 34.7480399,21.4935043 C35.6591765,21.4935043 36.703551,21.029343 37.8811653,20.1009985 C39.1189345,19.1210963 39.7378225,18.1841699 39.7378324,17.2902081 L39.7378324,16.8647315 C38.9814037,16.1942739 38.1132404,15.8590396 37.1333416,15.8590286 Z M106.797012,10.5340084 L101.510677,10.5340084 C102.163937,11.3935874 102.490568,12.4293711 102.490579,13.6413484 C102.490568,14.8533476 102.047894,15.927805 101.162547,16.8647315 C100.672585,17.3804723 100.234203,17.7414964 99.8474109,17.9477818 C99.5723381,18.0939166 99.1769423,18.2357495 98.6612015,18.3732694 C99.0652012,19.6368372 99.9247693,20.4620226 101.239906,20.8488255 C101.721264,20.9433367 102.030708,20.9906583 102.168239,20.9906583 C103.801413,20.9906583 105.14663,19.9849664 106.203913,17.9735716 C106.599309,17.2171626 106.797012,16.3532926 106.797012,15.3819724 L106.797012,10.5340084 Z M16.0395406,15.304614 C14.5095028,15.304614 13.1513863,15.9063172 11.9651878,17.1097015 C11.3892734,17.6942188 11.1013222,18.29162 11.1013222,18.9019051 C11.1013222,19.7099046 11.7588871,20.1138934 13.0740301,20.1138934 C14.7243943,20.1138934 16.2243392,19.417657 17.5738694,18.0251402 C18.2529177,17.3289038 18.5924573,16.7143167 18.5924573,16.181368 C18.3173856,15.5968727 17.4664137,15.304614 16.0395406,15.304614 Z M68.0004313,10.5340084 L61.9533706,10.5340084 L61.9533706,15.8848184 C61.9533706,16.6240634 62.1553649,17.294521 62.5593658,17.8962132 C63.0235271,18.5838677 63.6037358,18.9276949 64.2999909,18.9276949 C65.047808,18.9276949 65.7010797,18.7213986 66.2598061,18.3088059 C66.4489034,18.1884718 66.7927296,17.8876203 67.2912879,17.4062511 C67.4889792,17.1827799 67.7253607,16.800268 68.0004313,16.2587263 L68.0004313,10.5340084 Z M8.47104383,2.01139484 C7.2418554,2.01141684 6.22756616,2.28647863 5.42817278,2.83658021 C4.42247536,3.52425669 3.9196283,4.42680043 3.9196305,5.54421145 C3.9196283,6.96251805 4.33651855,8.03268446 5.17030235,8.75469965 L18.1656471,8.7559745 C18.0266351,8.49609403 17.829376,8.10027339 17.5738694,7.56850118 C17.2558143,6.83788206 16.6498191,6.04278845 15.7558826,5.18319835 C14.6212406,4.09156613 13.5123983,3.31365838 12.4293546,2.8494641 C11.1228012,2.2907696 9.80336612,2.01141684 8.47104383,2.01139484 Z M30.3900302,2.01139484 C29.1608418,2.01141684 28.1465525,2.28647863 27.3471591,2.83658021 C26.3414617,3.52425669 25.8386147,4.42680043 25.8386169,5.54421145 C25.8386147,6.96251805 26.2555049,8.03268446 27.0892887,8.75469965 L40.0846334,8.7559745 C39.9456214,8.49609403 39.7483624,8.10027339 39.4928557,7.56850118 C39.1748007,6.83788206 38.5688055,6.04278845 37.674869,5.18319835 C36.540227,4.09156613 35.4313847,3.31365838 34.348341,2.8494641 C33.0417876,2.2907696 31.7223525,2.01141684 30.3900302,2.01139484 Z M58.7557772,2.01139484 C57.5265888,2.01141684 56.5122996,2.28647863 55.7129062,2.83658021 C54.7072088,3.52425669 54.2043617,4.42680043 54.2043639,5.54421145 C54.2043617,6.96251805 54.621252,8.03268446 55.4550358,8.75469965 L68.4503805,8.7559745 C68.3113685,8.49609403 68.1141095,8.10027339 67.8586028,7.56850118 C67.5405478,6.83788206 66.9345525,6.04278845 66.040616,5.18319835 C64.905974,4.09156613 63.7971317,3.31365838 62.714088,2.8494641 C61.4075346,2.2907696 60.0880995,2.01141684 58.7557772,2.01139484 Z M76.3425404,2.862359 C75.3712257,3.49846689 74.88557,4.39241771 74.8855722,5.54421145 C74.88557,6.96251805 75.3024603,8.03268446 76.1362441,8.75469965 L91.04,8.754 L90.8794948,8.52239609 C89.5712572,6.68308315 88.0908159,5.22190064 86.4381674,4.13882174 C84.5471055,2.90106569 82.3595072,2.21771319 79.8753647,2.08875322 C78.43988,2.01140584 77.2622733,2.26928177 76.3425404,2.862359 Z" id="new-wordmark" fill="#000000" fill-rule="nonzero"></path>
    </g>
</svg>

<svg xmlns="http://www.w3.org/2000/svg" width="120" height="28"><path fill="#000" fill-rule="nonzero" d="M118.234 8.755 120 10.534h-4.41v16.71l-2.114-2.14v-14.57h-4.526v16.71l-2.101-2.127v-4.68c-1.04 1.194-2.373 1.791-3.997 1.791-2.003 0-3.533-.765-4.59-2.295-.688-.997-1.032-2.131-1.032-3.404.774 0 1.466-.197 2.076-.593.679-.438 1.079-1.018 1.199-1.74.052-.172.077-.469.077-.89 0-1.255-.472-2.179-1.418-2.772h-7.13v5.622L86 16.13c-1.625-.009-2.437.378-2.437 1.16 0 .464.129.86.387 1.186.275.353.64.53 1.096.53.36 0 .898-.057 1.611-.169.714-.12 1.251-.18 1.612-.18 1.238 0 2.3.524 3.185 1.573.85.997 1.276 2.127 1.276 3.391 0 1.006-.503 1.878-1.508 2.617-.92.68-1.904 1.019-2.953 1.019-1.951 0-3.8-.885-5.544-2.656-1.178-1.195-2.403-2.927-3.675-5.196l.787-.451c.825 1.564 1.826 2.91 3.004 4.035 1.487 1.427 2.94 2.14 4.358 2.14.937 0 1.783-.305 2.54-.915.816-.645 1.225-1.423 1.225-2.334 0-.378-.13-.7-.387-.967a1.26 1.26 0 0 0-.941-.4c-.387 0-.941.151-1.664.452-.713.292-1.259.438-1.637.438-.98 0-1.844-.507-2.592-1.521-.232-.301-.747-1.225-1.547-2.772-.318-.61-.477-1.105-.477-1.483 0-.73.391-1.216 1.173-1.457.439-.138 1.13-.206 2.076-.206h5.145v-3.43H76.82v16.71l-2.14-2.127V10.534h-4.462v16.71L68 25.014v-5.326c-.704.422-1.753.632-3.146.632-1.366-.137-2.518-.756-3.455-1.856-.928-1.075-1.393-2.304-1.393-3.688v-4.242h-3.868v16.71l-2.14-2.14v-14.57h-12.12v4.964c.258-.232.447-.391.567-.477.293-.215.58-.361.864-.438a6.105 6.105 0 0 1 1.638-.245c1.315 0 2.402.46 3.262 1.38.86.91 1.29 2.032 1.29 3.364 0 1.066-.379 2.072-1.135 3.017-.568.731-1.457 1.341-2.67 1.831l-.94-1.83c1.22-.568 2.037-1.015 2.45-1.341.91-.714 1.366-1.496 1.366-2.347 0-.765-.357-1.457-1.07-2.076-.456-.387-1.165-.533-2.128-.438-.455.043-1.014.344-1.676.902-.653.55-1.26 1.225-1.818 2.025v8.419l-2.14-2.166v-3.752c-.37.412-.916.77-1.638 1.07-.722.292-1.37.438-1.947.438-1.246 0-2.312-.425-3.197-1.276-.877-.851-1.315-1.9-1.315-3.146 0-1.272.417-2.32 1.25-3.146.834-.834 1.887-1.25 3.16-1.25 1.615 0 2.844.687 3.687 2.062v-5.544H27.773v16.71l-2.14-2.14v-14.57h-4.475v16.71l-2.295-2.295V20.32c-.644.43-1.384.808-2.217 1.135-.955.37-1.754.537-2.399.503-1.306-.07-2.437-.7-3.39-1.896-.757-.954-1.135-2.08-1.135-3.378.146-.67.395-1.207.748-1.611 1.366-1.29 2.88-1.904 4.538-1.844 1.65.051 2.935.842 3.855 2.372v-5.067H5.853v16.71l-2.14-2.14v-14.57H1.805L0 8.754h3.74C2.88 7.492 2.45 5.954 2.45 4.14c0-1.298.503-2.325 1.508-3.082C4.775.447 5.875.142 7.26.142c1.393 0 2.587.155 3.584.464 1.16.352 2.317.971 3.469 1.857 1.953 1.507 3.465 3.604 4.536 6.29l4.915.002h1.895c-.86-1.264-1.29-2.802-1.29-4.616 0-1.298.504-2.325 1.51-3.082.816-.61 1.916-.915 3.3-.915 1.393 0 2.587.155 3.584.464 1.16.352 2.317.971 3.469 1.857 1.953 1.507 3.465 3.604 4.536 6.29l11.271.002h1.986c-.86-1.264-1.29-2.802-1.29-4.616 0-1.298.503-2.325 1.509-3.082.817-.61 1.917-.915 3.3-.915 1.393 0 2.588.155 3.585.464 1.16.352 2.317.971 3.469 1.857 1.953 1.507 3.465 3.604 4.536 6.29l3.664.002h1.908c-.86-1.264-1.29-2.802-1.29-4.616 0-1.332.58-2.381 1.741-3.146C76.162.33 77.37 0 78.78 0c2.674 0 5.158.885 7.453 2.656 2.578 1.992 4.41 4.025 5.496 6.098h26.506Zm-81.1 7.104c-1.256 0-2.227.245-2.915.735-.945.67-1.46 1.564-1.547 2.682-.051.705.142 1.272.58 1.702.361.344.86.516 1.496.516.911 0 1.956-.465 3.133-1.393 1.238-.98 1.857-1.917 1.857-2.81v-.426c-.757-.67-1.625-1.006-2.605-1.006Zm69.663-5.325h-5.286c.653.86.98 1.895.98 3.107 0 1.212-.443 2.287-1.328 3.224-.49.515-.929.876-1.316 1.083-.275.146-.67.288-1.186.425.404 1.264 1.264 2.089 2.579 2.476.481.094.79.142.928.142 1.633 0 2.979-1.006 4.036-3.017.395-.757.593-1.62.593-2.592v-4.848Zm-90.757 4.77c-1.53 0-2.889.602-4.075 1.806-.576.584-.864 1.182-.864 1.792 0 .808.658 1.212 1.973 1.212 1.65 0 3.15-.696 4.5-2.089.679-.696 1.018-1.31 1.018-1.844-.275-.584-1.126-.876-2.552-.876ZM68 10.535h-6.047v5.35c0 .74.202 1.41.606 2.012.465.688 1.045 1.032 1.741 1.032.748 0 1.401-.207 1.96-.62.189-.12.533-.42 1.031-.902.198-.223.434-.606.71-1.147v-5.725ZM8.471 2.011c-1.23 0-2.243.275-3.043.826-1.006.687-1.508 1.59-1.508 2.707 0 1.419.417 2.489 1.25 3.21l12.996.002c-.14-.26-.337-.656-.592-1.187-.318-.731-.924-1.526-1.818-2.386-1.135-1.091-2.244-1.87-3.327-2.334-1.306-.558-2.626-.838-3.958-.838Zm21.919 0c-1.23 0-2.243.275-3.043.826-1.006.687-1.508 1.59-1.508 2.707 0 1.419.417 2.489 1.25 3.21l12.996.002c-.14-.26-.337-.656-.592-1.187-.318-.731-.924-1.526-1.818-2.386-1.135-1.091-2.244-1.87-3.327-2.334-1.306-.558-2.626-.838-3.958-.838Zm28.366 0c-1.23 0-2.244.275-3.043.826-1.006.687-1.509 1.59-1.509 2.707 0 1.419.417 2.489 1.251 3.21l12.995.002c-.139-.26-.336-.656-.591-1.187-.318-.731-.924-1.526-1.818-2.386-1.135-1.091-2.244-1.87-3.327-2.334-1.306-.558-2.626-.838-3.958-.838Zm17.587.851c-.972.636-1.457 1.53-1.457 2.682 0 1.419.416 2.489 1.25 3.21H91.04l-.16-.232c-1.309-1.839-2.79-3.3-4.442-4.383-1.89-1.238-4.078-1.921-6.563-2.05-1.435-.078-2.613.18-3.532.773Z"/></svg>
